packages/foundations/assets/icons/functional/images/maps/location_crosshairs.svg

<svg xmlns="http://www.w3.org/2000/svg" width="32" height="32" fill="none"><path fill="#1A1C1F" fill-rule="evenodd" d="M15.6 2.106c-.222.104-.311.184-.473.422l-.14.207v4.346l-.298.037c-1.888.236-4.043 1.397-5.364 2.89a9 9 0 0 0-2.161 4.397c-.059.306-.123.499-.175.527-.045.024-1.006.052-2.136.063-2.019.02-2.057.023-2.307.145-.514.25-.684.899-.367 1.4.279.44.269.438 2.674.473 1.159.016 2.134.047 2.167.067s.076.164.096.319c.02.154.097.521.171.814.841 3.339 3.583 5.92 7.026 6.613l.594.119.034.314c.019.173.037 1.157.04 2.187l.006 1.872.224.255c.254.289.474.4.789.4s.535-.111.789-.4l.224-.255.006-1.899c.003-1.044.021-2.028.04-2.186l.034-.288.594-.119c1.784-.359 3.267-1.144 4.571-2.419 1.337-1.307 2.178-2.849 2.547-4.674.066-.322.14-.61.166-.64.03-.033.855-.063 2.165-.08 2.266-.028 2.222-.023 2.535-.313.221-.204.302-.393.302-.7s-.08-.494-.302-.703c-.281-.266-.337-.273-2.536-.298-1.432-.017-2.087-.043-2.138-.085-.04-.033-.127-.325-.192-.647a9.04 9.04 0 0 0-2.074-4.208c-1.286-1.472-3.241-2.571-5.144-2.892l-.574-.097V4.919c0-2.333.005-2.291-.302-2.583-.305-.29-.776-.387-1.111-.23m2.237 7.143c1.287.387 2.188.924 3.109 1.854.902.91 1.408 1.766 1.81 3.06.146.469.148.501.147 1.81-.002 1.265-.009 1.36-.139 1.841-.586 2.156-2.298 4.008-4.404 4.765-.931.334-1.182.374-2.36.374s-1.429-.04-2.36-.374a7.3 7.3 0 0 1-3.281-2.444c-.558-.758-1.1-2.009-1.236-2.855-.071-.444-.072-2.111-.001-2.549.129-.794.565-1.854 1.082-2.629.951-1.425 2.373-2.421 4.116-2.882.581-.153.599-.154 1.813-.135 1.147.019 1.258.03 1.704.164m-2.549 3.846c-1.875.473-2.82 2.588-1.921 4.298.235.447.839 1.041 1.289 1.268a2.94 2.94 0 0 0 2.7-.005c.431-.218 1.082-.869 1.3-1.3.363-.721.428-1.583.174-2.316-.314-.906-1.111-1.664-1.998-1.899-.429-.113-1.188-.136-1.544-.046"/></svg>

<svg width="32" height="32" viewBox="0 0 32 32" fill="none" xmlns="http://www.w3.org/2000/svg"><path d="M15.600 2.106 C 15.378 2.210,15.289 2.290,15.127 2.528 L 14.987 2.735 14.987 4.908 L 14.987 7.081 14.689 7.118 C 12.801 7.354,10.646 8.515,9.325 10.008 C 8.188 11.294,7.487 12.721,7.164 14.405 C 7.105 14.711,7.041 14.904,6.989 14.932 C 6.944 14.956,5.983 14.984,4.853 14.995 C 2.834 15.015,2.796 15.018,2.546 15.140 C 2.032 15.390,1.862 16.039,2.179 16.540 C 2.458 16.980,2.448 16.978,4.853 17.013 C 6.012 17.029,6.987 17.060,7.020 17.080 C 7.052 17.101,7.096 17.244,7.116 17.399 C 7.136 17.553,7.213 17.920,7.287 18.213 C 8.128 21.552,10.870 24.133,14.313 24.826 L 14.907 24.945 14.941 25.259 C 14.960 25.432,14.978 26.416,14.981 27.446 L 14.987 29.318 15.211 29.573 C 15.465 29.862,15.685 29.973,16.000 29.973 C 16.315 29.973,16.535 29.862,16.789 29.573 L 17.013 29.318 17.019 27.419 C 17.022 26.375,17.040 25.391,17.059 25.233 L 17.093 24.945 17.687 24.826 C 19.471 24.467,20.954 23.682,22.258 22.407 C 23.595 21.100,24.436 19.558,24.805 17.733 C 24.871 17.411,24.945 17.123,24.971 17.093 C 25.001 17.060,25.826 17.030,27.136 17.013 C 29.402 16.985,29.358 16.990,29.671 16.700 C 29.892 16.496,29.973 16.307,29.973 16.000 C 29.973 15.694,29.893 15.506,29.671 15.297 C 29.390 15.031,29.334 15.024,27.135 14.999 C 25.703 14.982,25.048 14.956,24.997 14.914 C 24.957 14.881,24.870 14.589,24.805 14.267 C 24.485 12.684,23.786 11.266,22.731 10.059 C 21.445 8.587,19.490 7.488,17.587 7.167 L 17.013 7.070 17.013 4.919 C 17.013 2.586,17.018 2.628,16.711 2.336 C 16.406 2.046,15.935 1.949,15.600 2.106 M17.837 9.249 C 19.124 9.636,20.025 10.173,20.946 11.103 C 21.848 12.013,22.354 12.869,22.756 14.163 C 22.902 14.632,22.904 14.664,22.903 15.973 C 22.901 17.238,22.894 17.333,22.764 17.814 C 22.178 19.970,20.466 21.822,18.360 22.579 C 17.429 22.913,17.178 22.953,16.000 22.953 C 14.822 22.953,14.571 22.913,13.640 22.579 C 12.379 22.126,11.152 21.212,10.359 20.135 C 9.801 19.377,9.259 18.126,9.123 17.280 C 9.052 16.836,9.051 15.169,9.122 14.731 C 9.251 13.937,9.687 12.877,10.204 12.102 C 11.155 10.677,12.577 9.681,14.320 9.220 C 14.901 9.067,14.919 9.066,16.133 9.085 C 17.280 9.104,17.391 9.115,17.837 9.249 M15.288 13.095 C 13.413 13.568,12.468 15.683,13.367 17.393 C 13.602 17.840,14.206 18.434,14.656 18.661 C 15.519 19.097,16.484 19.095,17.356 18.656 C 17.787 18.438,18.438 17.787,18.656 17.356 C 19.019 16.635,19.084 15.773,18.830 15.040 C 18.516 14.134,17.719 13.376,16.832 13.141 C 16.403 13.028,15.644 13.005,15.288 13.095 " fill="#1A1C1F" stroke="none" fill-rule="evenodd"></path></svg>
